svg/furkot/ocha/along-route.svg

<svg viewBox="0 0 512 512" xmlns="http://www.w3.org/2000/svg"><path d="m365.906 20.48h-219.812l-125.614 471.04h471.04zm-94.208 453.837h-31.406l.005-62.869h31.406zm0-125.706h-31.406v-62.838h31.406zm0-125.702h-31.406v-62.837h31.406zm0-125.675h-31.406l.005-62.828h31.406z"/></svg>

<svg xmlns="http://www.w3.org/2000/svg" viewBox="0 0 512 512"><path d="M365.906 20.48L146.094 20.48 20.48 491.52 491.52 491.52 365.906 20.48ZM271.698 474.317L240.292 474.317 240.297 411.448 271.703 411.448 271.698 474.317ZM271.698 348.611L240.292 348.611 240.292 285.773 271.698 285.773 271.698 348.611ZM271.698 222.909L240.292 222.909 240.292 160.072 271.698 160.072 271.698 222.909ZM271.698 97.234L240.292 97.234 240.297 34.406 271.703 34.406 271.698 97.234Z"/></svg>
